packages/assets/static/images/icons/password.svg

<svg width="24" height="24" viewBox="0 0 24 24" xmlns="http://www.w3.org/2000/svg">
<path d="M20.3034 3.69649C19.1121 2.50353 17.5536 1.74675 15.8794 1.54826C14.2052 1.34978 12.513 1.72117 11.0758 2.6025C9.63854 3.48384 8.54018 4.82371 7.95793 6.4059C7.37568 7.9881 7.34349 9.72032 7.86657 11.3231L2.6897 16.4999C2.5498 16.6387 2.43889 16.8039 2.36341 16.9859C2.28792 17.168 2.24938 17.3632 2.25001 17.5602V20.2499C2.25001 20.6478 2.40804 21.0293 2.68935 21.3106C2.97065 21.5919 3.35218 21.7499 3.75001 21.7499H6.75001C6.94892 21.7499 7.13969 21.6709 7.28034 21.5303C7.42099 21.3896 7.50001 21.1988 7.50001 20.9999V19.4999H9.00001C9.19892 19.4999 9.38969 19.4209 9.53034 19.2803C9.67099 19.1396 9.75001 18.9488 9.75001 18.7499V17.2499H11.25C11.3485 17.25 11.4461 17.2307 11.5371 17.193C11.6282 17.1554 11.7109 17.1002 11.7806 17.0306L12.6769 16.1334C13.4271 16.3774 14.2111 16.5011 15 16.4999H15.0094C16.492 16.4981 17.9408 16.057 19.1728 15.2321C20.4048 14.4073 21.3646 13.2359 21.9312 11.8658C22.4977 10.4957 22.6454 8.9884 22.3557 7.53438C22.066 6.08036 21.3518 4.74482 20.3034 3.69649ZM21 9.19681C20.8978 12.3927 18.2109 14.9962 15.0103 14.9999H15C14.2408 15.0012 13.4883 14.8577 12.7828 14.5771C12.6448 14.5172 12.492 14.5002 12.3442 14.5283C12.1964 14.5564 12.0605 14.6283 11.9541 14.7346L10.9397 15.7499H9.00001C8.8011 15.7499 8.61033 15.8289 8.46968 15.9696C8.32903 16.1103 8.25001 16.301 8.25001 16.4999V17.9999H6.75001C6.5511 17.9999 6.36033 18.0789 6.21968 18.2196C6.07903 18.3603 6.00001 18.551 6.00001 18.7499V20.2499H3.75001V17.5602L9.26532 12.0459C9.37166 11.9395 9.44355 11.8035 9.47163 11.6557C9.49972 11.5079 9.48271 11.3551 9.42282 11.2171C9.14133 10.5093 8.99782 9.75417 9.00001 8.99243C9.00001 5.79181 11.6072 3.10493 14.8031 3.00274C15.6241 2.97535 16.4419 3.1168 17.2059 3.41835C17.97 3.7199 18.664 4.17512 19.2449 4.7558C19.8259 5.33649 20.2814 6.03027 20.5833 6.79418C20.8852 7.55809 21.027 8.37585 21 9.19681ZM18 7.12493C18 7.34743 17.934 7.56494 17.8104 7.74995C17.6868 7.93495 17.5111 8.07915 17.3055 8.1643C17.1 8.24944 16.8738 8.27172 16.6555 8.22831C16.4373 8.18491 16.2368 8.07776 16.0795 7.92043C15.9222 7.76309 15.815 7.56264 15.7716 7.34441C15.7282 7.12618 15.7505 6.89998 15.8356 6.69441C15.9208 6.48885 16.065 6.31314 16.25 6.18953C16.435 6.06591 16.6525 5.99993 16.875 5.99993C17.1734 5.99993 17.4595 6.11846 17.6705 6.32944C17.8815 6.54041 18 6.82656 18 7.12493Z"/>
</svg>

<svg viewBox="0 0 24 24" xmlns="http://www.w3.org/2000/svg" aria-hidden="true" fill="currentColor"><path d="M20.303 3.696a7.5 7.5 0 0 0-12.436 7.627L2.69 16.5a1.5 1.5 0 0 0-.44 1.06v2.69a1.5 1.5 0 0 0 1.5 1.5h3A.75.75 0 0 0 7.5 21v-1.5H9a.75.75 0 0 0 .75-.75v-1.5h1.5a.75.75 0 0 0 .53-.22l.897-.897c.75.244 1.534.368 2.323.367h.01a7.5 7.5 0 0 0 5.293-12.804m.697 5.5c-.102 3.197-2.79 5.8-5.99 5.804H15a6 6 0 0 1-2.217-.423.75.75 0 0 0-.829.158L10.94 15.75H9a.75.75 0 0 0-.75.75V18h-1.5a.75.75 0 0 0-.75.75v1.5H3.75v-2.69l5.515-5.514a.75.75 0 0 0 .158-.829A6 6 0 0 1 9 8.992c0-3.2 2.607-5.887 5.803-5.99A6 6 0 0 1 21 9.198m-3-2.071a1.125 1.125 0 1 1-2.25 0 1.125 1.125 0 0 1 2.25 0"/></svg>
